X: 43312
T: Woods Of Old Limerick, The
R: jig
M: 6/8
K: Gmajor
B2 G ABc|dgg fdc|B2 G ABc|ADD ABc|
B2 G ABc|dgg fdc|B2 G ABc|1 AGF G2 A:|2 AGF Gga||
bgf gag|fd^c dga|bgf gab|c'af g2 a|
bag afd|gag fdc|B2 G ABc|1 AGF Gga:|2 AGF G3||

